raw-svg/mars.svg

<svg fill="none" height="24" viewBox="0 0 24 24" width="24" xmlns="http://www.w3.org/2000/svg"><path clip-rule="evenodd" d="m15.5 4.25c0-.41421.3358-.75.75-.75h3.5c.4142 0 .75.33579.75.75v3.5c0 .41421-.3358.75-.75.75s-.75-.33579-.75-.75v-1.67386l-3.4508 3.49247c.908 1.14949 1.4508 2.60259 1.4508 4.18139 0 3.7279-3.0221 6.75-6.75 6.75-3.72792 0-6.75-3.0221-6.75-6.75s3.02208-6.75 6.75-6.75c1.6081 0 3.0856.56303 4.2448 1.50154l3.4598-3.50154h-1.7046c-.4142 0-.75-.33579-.75-.75zm-5.25 4.25c-2.89949 0-5.25 2.3505-5.25 5.25s2.35051 5.25 5.25 5.25c2.8995 0 5.25-2.3505 5.25-5.25 0-1.4359-.5755-2.736-1.5102-3.6846-.953-.96718-2.2758-1.5654-3.7398-1.5654z" fill="#000" fill-rule="evenodd"/></svg>

<svg width="24" height="24" viewBox="0 0 24 24" fill="none" xmlns="http://www.w3.org/2000/svg">
<path fill-rule="evenodd" clip-rule="evenodd" d="M15.5 4.25C15.5 3.83579 15.8358 3.5 16.25 3.5H19.75C20.1642 3.5 20.5 3.83579 20.5 4.25V7.75C20.5 8.16421 20.1642 8.5 19.75 8.5C19.3358 8.5 19 8.16421 19 7.75V6.07614L15.5492 9.56861C16.4572 10.7181 17 12.1712 17 13.75C17 17.4779 13.9779 20.5 10.25 20.5C6.52208 20.5 3.5 17.4779 3.5 13.75C3.5 10.0221 6.52208 7 10.25 7C11.8581 7 13.3356 7.56303 14.4948 8.50154L17.9546 5H16.25C15.8358 5 15.5 4.66421 15.5 4.25ZM10.25 8.5C7.35051 8.5 5 10.8505 5 13.75C5 16.6495 7.35051 19 10.25 19C13.1495 19 15.5 16.6495 15.5 13.75C15.5 12.3141 14.9245 11.014 13.9898 10.0654C13.0368 9.09822 11.714 8.5 10.25 8.5Z" fill="black"/>
</svg>
